outputs/icons/editor/distribute_horizontal_round.svg

<svg xmlns="http://www.w3.org/2000/svg" width="1200" height="1200" fill="none"><g clip-path="url(#a)"><path fill="#000" d="M150 1100c-27.5 0-50-22.5-50-50V150c0-27.5 22.5-50 50-50s50 22.5 50 50v900c0 27.5-22.5 50-50 50m900-1000c-27.5 0-50 22.5-50 50v900c0 27.5 22.5 50 50 50s50-22.5 50-50V150c0-27.5-22.5-50-50-50M600 350c-41.5 0-75 33.5-75 75v350c0 41.5 33.5 75 75 75s75-33.5 75-75V425c0-41.5-33.5-75-75-75"/></g><defs><clipPath id="a"><path fill="#fff" d="M0 0h1200v1200H0z"/></clipPath></defs></svg>

<svg width="1200" height="1200" viewBox="0 0 1200 1200" fill="none" xmlns="http://www.w3.org/2000/svg"><g clip-path="url(#clip0_238_222)"><path d="M150 1100C122.5 1100 100 1077.5 100 1050V150C100 122.5 122.5 100 150 100C177.5 100 200 122.5 200 150V1050C200 1077.5 177.5 1100 150 1100ZM1050 100C1022.5 100 1000 122.5 1000 150V1050C1000 1077.5 1022.5 1100 1050 1100C1077.5 1100 1100 1077.5 1100 1050V150C1100 122.5 1077.5 100 1050 100ZM600 350C558.5 350 525 383.5 525 425V775C525 816.5 558.5 850 600 850C641.5 850 675 816.5 675 775V425C675 383.5 641.5 350 600 350Z" fill="black"/></g><defs><clipPath id="clip0_238_222"><path width="24" fill="white" d="M0 0H1200V1200H0V0z"/></clipPath></defs></svg>
